images/service-1/responsibilities-2.svg

<svg width="75" height="75" viewBox="0 0 75 75" fill="none" xmlns="http://www.w3.org/2000/svg">
<path d="M10.5469 1.17188C6.02344 1.17188 2.34375 4.85273 2.34375 9.375V10.5469V11.7188V53.9062V55.0781C2.34375 59.0531 5.18762 62.3745 8.94699 63.121C10.2618 66.039 13.166 67.9688 16.4062 67.9688H69.1406C71.0789 67.9688 72.6562 66.3914 72.6562 64.4531V22.2656C72.6562 20.3273 71.0789 18.75 69.1406 18.75H67.9688V17.5781C67.9688 15.6398 66.3914 14.0625 64.4531 14.0625H18.75V9.375C18.75 4.85273 15.0703 1.17188 10.5469 1.17188ZM10.5469 3.51562C13.7777 3.51562 16.4062 6.14414 16.4062 9.375V48.1773C14.9156 46.6527 12.8414 45.7031 10.5469 45.7031C8.25234 45.7031 6.17812 46.6527 4.6875 48.1773V11.7188V10.5469V9.375C4.6875 6.14414 7.31602 3.51562 10.5469 3.51562ZM18.75 16.4062H64.4531C65.0988 16.4062 65.625 16.9312 65.625 17.5781V59.7656C65.625 60.4125 65.0988 60.9375 64.4531 60.9375H10.5469C7.31602 60.9375 4.6875 58.309 4.6875 55.0781V53.9062C4.6875 50.6754 7.31602 48.0469 10.5469 48.0469C13.7777 48.0469 16.4062 50.6754 16.4062 53.9062V55.0781C16.4062 55.7262 16.9312 56.25 17.5781 56.25C18.225 56.25 18.75 55.7262 18.75 55.0781V16.4062ZM59.7656 19.9219C59.1188 19.9219 58.5938 20.4457 58.5938 21.0938C58.5938 21.7418 59.1188 22.2656 59.7656 22.2656H62.1094C62.7562 22.2656 63.2812 21.7418 63.2812 21.0938C63.2812 20.4457 62.7562 19.9219 62.1094 19.9219H59.7656ZM67.9688 21.0938H69.1406C69.7863 21.0938 70.3125 21.6187 70.3125 22.2656V64.4531C70.3125 65.1 69.7863 65.625 69.1406 65.625H16.4062C14.5324 65.625 12.8108 64.7273 11.7233 63.2812H64.4531C66.3914 63.2812 67.9688 61.7039 67.9688 59.7656V21.0938ZM43.3594 25.7812C42.7125 25.7812 42.1875 26.3051 42.1875 26.9531C42.1875 27.6012 42.7125 28.125 43.3594 28.125H47.5616L37.5 38.1866L33.6411 34.3277C33.1828 33.8695 32.4422 33.8695 31.9839 34.3277L23.7808 42.5308C23.3226 42.989 23.3226 43.7297 23.7808 44.1879C24.0093 44.4164 24.3094 44.5312 24.6094 44.5312C24.9094 44.5312 25.2094 44.4164 25.4379 44.1879L32.8125 36.8134L36.6714 40.6723C37.1297 41.1305 37.8703 41.1305 38.3286 40.6723L49.2188 29.7821V33.9844C49.2188 34.6324 49.7438 35.1562 50.3906 35.1562C51.0375 35.1562 51.5625 34.6324 51.5625 33.9844V26.9531C51.5625 26.9379 51.5533 26.9249 51.5533 26.9096C51.5487 26.7725 51.5283 26.6358 51.4732 26.5045C51.4732 26.5033 51.4721 26.5011 51.4709 26.4999C51.4663 26.4894 51.4573 26.483 51.4526 26.4725C51.3999 26.3553 51.3287 26.2526 51.2444 26.1612C51.2162 26.1307 51.1856 26.108 51.1551 26.0811C51.0801 26.0155 51.0004 25.9608 50.9125 25.9163C50.875 25.8975 50.8402 25.8789 50.8003 25.8636C50.6702 25.8156 50.5348 25.7812 50.3906 25.7812H43.3594ZM59.7656 25.7812C59.1188 25.7812 58.5938 26.3051 58.5938 26.9531C58.5938 27.6012 59.1188 28.125 59.7656 28.125H62.1094C62.7562 28.125 63.2812 27.6012 63.2812 26.9531C63.2812 26.3051 62.7562 25.7812 62.1094 25.7812H59.7656ZM59.7656 31.6406C59.1188 31.6406 58.5938 32.1645 58.5938 32.8125C58.5938 33.4605 59.1188 33.9844 59.7656 33.9844H62.1094C62.7562 33.9844 63.2812 33.4605 63.2812 32.8125C63.2812 32.1645 62.7562 31.6406 62.1094 31.6406H59.7656ZM59.7656 37.5C59.1188 37.5 58.5938 38.0238 58.5938 38.6719C58.5938 39.3199 59.1188 39.8438 59.7656 39.8438H62.1094C62.7562 39.8438 63.2812 39.3199 63.2812 38.6719C63.2812 38.0238 62.7562 37.5 62.1094 37.5H59.7656ZM59.7656 43.3594C59.1188 43.3594 58.5938 43.8832 58.5938 44.5312C58.5938 45.1793 59.1188 45.7031 59.7656 45.7031H62.1094C62.7562 45.7031 63.2812 45.1793 63.2812 44.5312C63.2812 43.8832 62.7562 43.3594 62.1094 43.3594H59.7656ZM22.2656 46.875C21.6187 46.875 21.0938 47.3988 21.0938 48.0469C21.0938 48.6949 21.6187 49.2188 22.2656 49.2188H52.7344C53.3812 49.2188 53.9062 48.6949 53.9062 48.0469C53.9062 47.3988 53.3812 46.875 52.7344 46.875H22.2656ZM59.7656 49.2188C59.1188 49.2188 58.5938 49.7426 58.5938 50.3906C58.5938 51.0387 59.1188 51.5625 59.7656 51.5625H62.1094C62.7562 51.5625 63.2812 51.0387 63.2812 50.3906C63.2812 49.7426 62.7562 49.2188 62.1094 49.2188H59.7656ZM59.7656 55.0781C59.1188 55.0781 58.5938 55.602 58.5938 56.25C58.5938 56.898 59.1188 57.4219 59.7656 57.4219H62.1094C62.7562 57.4219 63.2812 56.898 63.2812 56.25C63.2812 55.602 62.7562 55.0781 62.1094 55.0781H59.7656Z" fill="#E4B564"/>
</svg>

<svg width="75" height="75" fill="none" xmlns="http://www.w3.org/2000/svg"><path d="M10.547 1.172c-4.524 0-8.203 3.68-8.203 8.203v45.703c0 3.975 2.844 7.296 6.603 8.043 1.315 2.918 4.219 4.848 7.46 4.848H69.14a3.52 3.52 0 003.515-3.516V22.266a3.52 3.52 0 00-3.515-3.516h-1.172v-1.172a3.52 3.52 0 00-3.516-3.515H18.75V9.375c0-4.522-3.68-8.203-8.203-8.203zm0 2.344c3.23 0 5.86 2.628 5.86 5.859v38.802a8.172 8.172 0 00-11.72 0V9.375c0-3.23 2.629-5.86 5.86-5.86zm8.203 12.89h45.703c.646 0 1.172.525 1.172 1.172v42.188c0 .647-.526 1.172-1.172 1.172H10.547a5.866 5.866 0 01-5.86-5.86v-1.172c0-3.23 2.629-5.86 5.86-5.86 3.23 0 5.86 2.63 5.86 5.86v1.172a1.172 1.172 0 102.343 0V16.406zm41.016 3.516a1.172 1.172 0 100 2.344h2.343a1.172 1.172 0 100-2.344h-2.343zm8.203 1.172h1.172c.645 0 1.171.525 1.171 1.172v42.187c0 .647-.526 1.172-1.171 1.172H16.406a5.865 5.865 0 01-4.683-2.344h52.73a3.52 3.52 0 003.516-3.515V21.094zm-24.61 4.687a1.172 1.172 0 100 2.344h4.203L37.5 38.187l-3.859-3.86a1.17 1.17 0 00-1.657 0l-8.203 8.204a1.17 1.17 0 101.657 1.657l7.375-7.375 3.858 3.86a1.17 1.17 0 001.658 0l10.89-10.89v4.201a1.172 1.172 0 102.343 0v-7.03c0-.016-.009-.03-.009-.044a1.131 1.131 0 00-.082-.41c-.005-.01-.014-.017-.018-.027a1.159 1.159 0 00-.209-.312c-.028-.03-.058-.053-.089-.08a1.165 1.165 0 00-.242-.165c-.038-.018-.073-.037-.113-.052a1.177 1.177 0 00-.41-.083h-7.03zm16.407 0a1.172 1.172 0 100 2.344h2.343a1.172 1.172 0 100-2.344h-2.343zm0 5.86a1.172 1.172 0 100 2.343h2.343a1.172 1.172 0 100-2.343h-2.343zm0 5.859a1.172 1.172 0 100 2.344h2.343a1.172 1.172 0 100-2.344h-2.343zm0 5.86a1.172 1.172 0 100 2.343h2.343a1.172 1.172 0 100-2.344h-2.343zm-37.5 3.515a1.171 1.171 0 100 2.344h30.468a1.172 1.172 0 100-2.344H22.266zm37.5 2.344a1.172 1.172 0 100 2.343h2.343a1.172 1.172 0 100-2.343h-2.343zm0 5.86a1.172 1.172 0 100 2.343h2.343a1.172 1.172 0 100-2.344h-2.343z" fill="#E4B564"/></svg>
